src/icons/solid/users/super-admin.svg

<svg width="24" height="24" viewBox="0 0 24 24" fill="none" xmlns="http://www.w3.org/2000/svg">
<g clip-path="url(#clip0_4552_447)">
<path d="M14.9297 13.2041C15.2895 13.0042 15.7097 12.9539 16.0996 13.0537C19.4895 13.9437 21.9999 17.0139 22 20.6738C22 21.9638 20.9501 23.0038 19.6602 23.0039H4.33984C3.04992 23.0038 2 21.9638 2 20.6738C2.00012 17.0139 4.50047 13.9337 7.90039 13.0537C8.30025 12.9539 8.71045 13.0142 9.07031 13.2041C9.94025 13.674 10.9401 13.9443 12 13.9443C13.0599 13.9443 14.0597 13.684 14.9297 13.2041Z" fill="#3C3B44"/>
<path d="M16.5205 7.37402C16.6105 9.71402 14.91 11.7844 12.54 12.0644C10.1601 12.3544 8.01054 10.7338 7.56055 8.42382L16.5205 7.37402Z" fill="#3C3B44"/>
<path d="M11.0498 1.10449C11.1698 0.974486 11.37 0.963979 11.5 1.08398L13.6396 3.52441C13.6401 3.53451 13.6602 3.55371 13.6602 3.55371C13.7801 3.67366 13.9894 3.67382 14.1094 3.54394L15.79 1.89453C15.8499 1.86458 15.9096 1.84379 15.9795 1.84374C16.1595 1.85374 16.29 2.00456 16.29 2.18456L16.2295 5.89453L7.50977 6.91406L6.60938 3.33398C6.57949 3.26405 6.5894 3.19372 6.60938 3.13378C6.66939 2.96399 6.85943 2.88457 7.0293 2.94433L9.04004 4.13378C9.0499 4.14365 9.05947 4.15402 9.06934 4.15429C9.22934 4.23429 9.42 4.17367 9.5 4.01367L11.0195 1.14453C11.0295 1.12464 11.0399 1.11443 11.0498 1.10449Z" fill="#3C3B44"/>
</g>
<defs>
<clipPath id="clip0_4552_447">
<rect width="24" height="24" fill="white"/>
</clipPath>
</defs>
</svg>

<svg xmlns="http://www.w3.org/2000/svg" width="24" height="24" fill="none" viewBox="0 0 24 24"><g fill="currentColor" clip-path="url(#a)"><path d="M14.93 13.204c.36-.2.78-.25 1.17-.15 3.39.89 5.9 3.96 5.9 7.62 0 1.29-1.05 2.33-2.34 2.33H4.34c-1.29 0-2.34-1.04-2.34-2.33 0-3.66 2.5-6.74 5.9-7.62.4-.1.81-.04 1.17.15.87.47 1.87.74 2.93.74s2.06-.26 2.93-.74m1.59-5.83c.09 2.34-1.61 4.41-3.98 4.69-2.38.29-4.53-1.33-4.98-3.64zm-5.47-6.27c.12-.13.32-.14.45-.02l2.14 2.44c0 .01.02.03.02.03.12.12.33.12.45-.01l1.68-1.65c.06-.03.12-.05.19-.05.18.01.31.16.31.34l-.06 3.71-8.72 1.02-.9-3.58a.28.28 0 0 1 0-.2c.06-.17.25-.25.42-.19l2.01 1.19c.01.01.02.02.03.02.16.08.35.02.43-.14l1.52-2.87c.01-.02.02-.03.03-.04"/></g><defs><clipPath id="a"><path fill="currentColor" d="M0 0h24v24H0z"/></clipPath></defs></svg>
